X: 14560
T: Gan Ainm
R: polka
M: 2/4
K: Gmajor
d2 B2|BcdB|c2 A2|A3 c|B2 G2|GABG|AGFE|D4|
d2 B2|BcdB|c2 A2|A3c|BAGB|AGFA|1 G3 F|GABc:|2 (G4|G2) FG||
|:AGFE|D4|dcBA|G2 d2|edcB|A2 BA|G2 E2|D2 G2|
AGFE|D4|dcBA|GA GA|G2 G2|A2 F2|G2 G2|G4:|
B2G2|GABG|A2 F2|F2 A2|G2E2|E2 G2|F2 D2|DEFD|
E2 EF|G2 E2|D2 G2|B3 A|GAGc|dedB|c2 A2|A3 c|
B2G2|GABG|A2 F2|F2 A2|G2E2|E2 G2|F2 D2|DEFD|
E2 EF|G2 E2|D2 G2|B2 Bc|BA G2|AG F2|G2 GF|GABc||

